symbols/web/co2/materialsymbolssharp/co2_wght300grad200_20px.svg

<svg xmlns="http://www.w3.org/2000/svg" height="20" width="20"><path d="M8.271 12.562V7.438h4.291v5.124Zm1.375-1.374h1.542V8.812H9.646Zm-7.208 1.374V7.438h4.291v1.791H5.354v-.417H3.812v2.376h1.542v-.417h1.375v1.791Zm11.666 2.5v-3.124h2.5v-.626h-2.5V9.938h3.875v3.124h-2.5v.626h2.5v1.374Z"/></svg>

<svg xmlns="http://www.w3.org/2000/svg" height="20" width="20"><path d="M8.271 12.562V7.438H12.562V12.562ZM9.646 11.188H11.188V8.812H9.646ZM2.438 12.562V7.438H6.729V9.229H5.354V8.812H3.812V11.188H5.354V10.771H6.729V12.562ZM14.104 15.062V11.938H16.604V11.312H14.104V9.938H17.979V13.062H15.479V13.688H17.979V15.062Z"/></svg>
